usr/share/icons/biglinux-icons-material/22/places/folder-owncloud.svg

<svg width="22" height="22" version="1.1" xmlns="http://www.w3.org/2000/svg">
 <defs>
  <style id="current-color-scheme" type="text/css">.ColorScheme-Text { color:#363636; } .ColorScheme-Highlight { color:#5294e2; }</style>
 </defs>
 <path d="m10 6.0001a2.5 2.5 0 0 0-2.4609 2.0605 2.5 2.5 0 0 0-0.53906-0.060547 2.5 2.5 0 0 0-2.5 2.5 2.5 2.5 0 0 0 0.16406 0.88867 2.5 2.5 0 0 0-1.1641 2.1113 2.5 2.5 0 0 0 2.5 2.5 2.5 2.5 0 0 0 1.9414-0.92578 4 4 0 0 0 2.5586 0.92578 4 4 0 0 0 2.7109-1.0605 3 3 0 0 0 2.2891 1.0605 3 3 0 0 0 3-3 3 3 0 0 0-2.0859-2.8555 2.5 2.5 0 0 0 0.08594-0.64453 2.5 2.5 0 0 0-2.5-2.5 2.5 2.5 0 0 0-1.6582 0.62891 2.5 2.5 0 0 0-2.3418-1.6289z" class="ColorScheme-Text" fill="currentColor"/>
</svg>

<svg xmlns="http://www.w3.org/2000/svg" width="22" height="22"><defs><style id="current-color-scheme" type="text/css">.ColorScheme-Highlight{color:#5294e2}</style></defs><path fill="currentColor" d="M10 6a2.5 2.5 0 0 0-2.46 2.06A2.5 2.5 0 0 0 7 8a2.5 2.5 0 0 0-2.5 2.5 2.5 2.5 0 0 0 .164.889A2.5 2.5 0 0 0 3.5 13.5 2.5 2.5 0 0 0 6 16a2.5 2.5 0 0 0 1.941-.926A4 4 0 0 0 10.5 16a4 4 0 0 0 2.71-1.06A3 3 0 0 0 15.5 16a3 3 0 0 0 3-3 3 3 0 0 0-2.086-2.855A2.5 2.5 0 0 0 16.5 9.5 2.5 2.5 0 0 0 14 7a2.5 2.5 0 0 0-1.658.629A2.5 2.5 0 0 0 10 6z" style="color:#dedede"/></svg>
